X:962
T:Jolly Tinker, The
R:reel
H:Unusual version. See also #800.
Z:id:hn-reel-962
M:C|
K:Dmix
d2dA cAGc | AddA cAGc | Addc AdcA | GEED CDEG |
Ad~d2 fd~d2 | adfd cAGc | Addc AdcA | GEED CDEG ||
|: AD~D2 A,D~D2 | ~A3d cAGc | ADFD ~E3G |1 AdcA G2FG :|2 AdcA GEFG ||
|: AddB ~c3B | Ad~d2 adfd | AddB ~c3B |1 cdef gea2 :|2 cdef ge~e2 ||
|: ad~d2 adbd | ad~d2 eA~A2 | ~a3b a2ed |1 ^cdef gefg :|2 ^cdef g2fe ||

